X:1
T:Glân Weddwdod Mwyn
M:3/4
L:1/8
R:Air
N:The indicated air for the song “Rose of the Hills” (Haf Gan)
B:John Thomas – Y Caniedydd Cymreig/The Cambrian Minstrel (1845, pp. 5-6)
Z:AK/Fiddler’s Companion
K:D
V:1
DE|F2G2A2|d2c2B2|A2 AB AG|F4 DE|F2G2A2|B2c2d2|
e2d2c2|d4 AG|F2G2A2|d2c2B2|A2 AB AG|(F3E) D2|F2G2A2|
B2c2d2|{f}e2d2c2|{e}d4||de|.f2.f2.e2|.d2.d2.c2|d2 df eg|f4e2|
d2d2c2|B2B2A2|GF GB AG|F4 DE|F2G2A2|B2c2d2|{f}e2d2 Tc2|{Bc}d4||
V:2
FE|D2E2F2|B2A2G2|F2 FG FE|D4 DD|D2E2F2|G2E2F2|
G2F2 AG|F4 FE|D2E2F2|B2 A2G2|F2 FG FE|D4 D2 |D2E2F2|
G2E2F2|G2 FB AG|F4||AA|d2d2 ^GA|B2B2A2|FE Fd ce|d4 c2|
B2B2A2|G2G2F2|ED B,G FE|D4 DD|D2E2F2|G2E2F2|G2 FB AG|F4||

